img/icon-crypto.svg

<svg width="103" height="130" viewBox="0 0 103 130" fill="none" xmlns="http://www.w3.org/2000/svg">
<g filter="url(#filter0_d_579_1216)">
<path fill-rule="evenodd" clip-rule="evenodd" d="M33.7846 22.6172V30.2344H24.4153H15.046V35.1172V40H18.955C23.7026 40 24.5823 40.1891 25.8357 41.4783C27.3513 43.0373 27.276 41.8125 27.2706 64.7914C27.2681 76.3461 27.188 85.5475 27.0866 85.9811C26.8819 86.8551 26.4085 87.5504 25.622 88.1324C25.1206 88.5035 24.7559 88.54 20.9918 88.5977L16.9058 88.6602L16.0669 93.6836C15.6056 96.4463 15.1767 98.9012 15.114 99.1387L15 99.5703L23.9484 99.5731C28.8701 99.5744 33.0966 99.6287 33.3408 99.6934L33.7846 99.8111V107.406V115H38.5185H43.2525V107.36V99.7201L43.6963 99.8379C43.9405 99.9025 45.5826 99.9568 47.3454 99.9582L50.5507 99.9609V107.48V115H55.1837H59.8168L59.8683 107.334L59.92 99.6687L62.9503 99.4313C79.0089 98.173 86.4545 92.49 87.8455 80.4297C88.2995 76.4936 87.7326 72.2006 86.4119 69.5728C84.6076 65.983 80.9674 63.184 76.2504 61.7594L74.5704 61.252L75.8958 60.466C77.9998 59.2184 79.9275 57.1477 80.9899 54.9941C82.1367 52.6697 82.5054 50.9824 82.5034 48.067C82.5018 45.3875 82.2714 43.7682 81.6169 41.8367C79.4437 35.4219 73.4503 31.8744 62.3856 30.4533L59.92 30.1367L59.8683 22.5684L59.8168 15H55.1837H50.5507V22.2965V29.5928L49.3382 29.7184C48.6715 29.7873 46.985 29.8438 45.5905 29.8438H43.0553V22.4219V15H38.4199H33.7846V22.6172ZM53.096 40.7959C57.2404 41.1803 60.6323 42.3057 62.4343 43.8943C65.6534 46.732 65.9968 52.0838 63.1484 55.0191C60.3269 57.9268 55.4825 59.1291 46.5564 59.1375L43.2525 59.1406V49.9936C43.2525 44.9625 43.3117 40.7877 43.3841 40.7162C43.5933 40.509 50.6243 40.5666 53.096 40.7959ZM57.812 68.7904C61.4037 69.4098 65.17 70.8928 66.6977 72.2891C67.9948 73.4744 69.0954 75.6295 69.3716 77.524C69.698 79.7631 68.48 83.0465 66.7701 84.5377C65.6063 85.5523 62.7858 86.9008 60.709 87.4353C57.2493 88.3258 51.4427 88.8059 45.7674 88.6705L43.2525 88.6105V78.5957C43.2525 73.0875 43.3192 68.5129 43.4004 68.4299C43.6811 68.1437 55.8235 68.4475 57.812 68.7904Z" fill="#06FF79"/>
</g>
<defs>
<filter id="filter0_d_579_1216" x="0" y="0" width="103" height="130" filterUnits="userSpaceOnUse" color-interpolation-filters="sRGB">
<feFlood flood-opacity="0" result="BackgroundImageFix"/>
<feColorMatrix in="SourceAlpha" type="matrix" values="0 0 0 0 0 0 0 0 0 0 0 0 0 0 0 0 0 0 127 0" result="hardAlpha"/>
<feOffset/>
<feGaussianBlur stdDeviation="7.5"/>
<feComposite in2="hardAlpha" operator="out"/>
<feColorMatrix type="matrix" values="0 0 0 0 0.0463889 0 0 0 0 0.695833 0 0 0 0 0.346333 0 0 0 0.8 0"/>
<feBlend mode="normal" in2="BackgroundImageFix" result="effect1_dropShadow_579_1216"/>
<feBlend mode="normal" in="SourceGraphic" in2="effect1_dropShadow_579_1216" result="shape"/>
</filter>
</defs>
</svg>

<svg width="103" height="130" fill="none" xmlns="http://www.w3.org/2000/svg"><g filter="url(#filter0_d_579_1216)"><path fill-rule="evenodd" clip-rule="evenodd" d="M33.785 22.617v7.617H15.046V40h3.909c4.748 0 5.627.19 6.88 1.478 1.516 1.56 1.441.334 1.436 23.313-.003 11.555-.083 20.757-.184 21.19-.205.874-.678 1.57-1.465 2.151-.501.371-.866.408-4.63.466l-4.086.062-.84 5.024c-.46 2.762-.89 5.217-.952 5.455L15 99.57l8.948.003c4.922.001 9.149.056 9.393.12l.444.118V115H43.252V99.72l.444.118c.245.065 1.887.119 3.65.12l3.205.003V115h9.266l.051-7.666.052-7.665 3.03-.238C79.01 98.173 86.454 92.49 87.845 80.43c.454-3.936-.112-8.23-1.433-10.857-1.804-3.59-5.445-6.389-10.162-7.814l-1.68-.507 1.326-.786c2.104-1.248 4.031-3.318 5.094-5.472 1.147-2.324 1.515-4.012 1.513-6.927-.001-2.68-.232-4.299-.886-6.23-2.173-6.415-8.167-9.963-19.231-11.384l-2.466-.316-.052-7.569L59.817 15H50.55v14.593l-1.213.125c-.666.07-2.353.126-3.748.126h-2.535V15h-9.27v7.617zm19.311 18.179c4.144.384 7.536 1.51 9.338 3.098 3.22 2.838 3.563 8.19.714 11.125-2.821 2.908-7.666 4.11-16.592 4.119l-3.303.003v-9.147c0-5.032.059-9.206.131-9.278.21-.207 7.24-.15 9.712.08zm4.716 27.994c3.592.62 7.358 2.103 8.886 3.5 1.297 1.184 2.397 3.34 2.674 5.234.326 2.24-.892 5.522-2.602 7.014-1.164 1.014-3.984 2.363-6.061 2.897-3.46.89-9.266 1.37-14.942 1.236l-2.515-.06V78.596c0-5.508.067-10.083.148-10.166.281-.286 12.424.017 14.412.36z" fill="#06FF79"/></g><defs><filter id="filter0_d_579_1216" x="0" y="0" width="103" height="130" filterUnits="userSpaceOnUse" color-interpolation-filters="sRGB"><feFlood flood-opacity="0" result="BackgroundImageFix"/><feColorMatrix in="SourceAlpha" values="0 0 0 0 0 0 0 0 0 0 0 0 0 0 0 0 0 0 127 0" result="hardAlpha"/><feOffset/><feGaussianBlur stdDeviation="7.5"/><feComposite in2="hardAlpha" operator="out"/><feColorMatrix values="0 0 0 0 0.0463889 0 0 0 0 0.695833 0 0 0 0 0.346333 0 0 0 0.8 0"/><feBlend in2="BackgroundImageFix" result="effect1_dropShadow_579_1216"/><feBlend in="SourceGraphic" in2="effect1_dropShadow_579_1216" result="shape"/></filter></defs></svg>
